images/common.svg

<svg xmlns="http://www.w3.org/2000/svg" width="520" height="539" fill="none"><path stroke="#D8CCBF" stroke-linecap="round" stroke-linejoin="round" stroke-width="30" d="M437.478 438.9h-235.13c-17.481 0-31.652-16.088-31.652-35.933V211.75L319.913 100.1 469.13 211.75v191.217c0 19.845-14.171 35.933-31.652 35.933Z"/><path stroke="#D8CCBF" stroke-linecap="round" stroke-linejoin="round" stroke-width="30" d="M317.652 438.9H82.522c-17.481 0-31.652-16.088-31.652-35.933V211.75L200.087 100.1l149.217 111.65v191.217c0 19.845-14.171 35.933-31.652 35.933Z"/><path fill="#D8CCBF" d="M200.041 375.233c-21.403 0-41.356-12.024-53.375-32.159-3.152-5.281-1.936-12.463 2.715-16.041 4.653-3.582 10.979-2.198 14.131 3.081 8.228 13.787 21.884 22.019 36.529 22.019 14.644 0 28.3-8.232 36.528-22.019 3.152-5.278 9.479-6.661 14.131-3.081 4.652 3.578 5.867 10.76 2.715 16.041-12.019 20.135-31.972 32.159-53.374 32.159Z"/><path fill="#D8CCBF" d="M200.041 375.233c-21.403 0-41.356-12.024-53.375-32.159-3.152-5.281-1.936-12.463 2.715-16.041 4.653-3.582 10.979-2.198 14.131 3.081 8.228 13.787 21.884 22.019 36.529 22.019 14.644 0 28.3-8.232 36.528-22.019 3.152-5.278 9.479-6.661 14.131-3.081 4.652 3.578 5.867 10.76 2.715 16.041-12.019 20.135-31.972 32.159-53.374 32.159ZM264.137 276.258c8.181 0 14.814-7.529 14.814-16.817s-6.633-16.819-14.814-16.819c-8.181 0-14.813 7.531-14.813 16.819s6.632 16.817 14.813 16.817ZM150.962 259.441c0 9.288-6.633 16.817-14.814 16.817-8.181 0-14.813-7.529-14.813-16.817s6.632-16.819 14.813-16.819c8.181 0 14.814 7.531 14.814 16.819Z"/><path fill="#D8CCBF" d="M262.998 250.695c-4.254 0-7.703 3.916-7.703 8.745 0 4.83 3.449 8.745 7.703 8.745h2.278c4.255 0 7.704-3.915 7.704-8.745 0-4.829-3.449-8.745-7.704-8.745h-2.278Z"/><path fill="#D8CCBF" d="M262.998 250.695c-4.254 0-7.703 3.916-7.703 8.745 0 4.83 3.449 8.745 7.703 8.745h2.278c4.255 0 7.704-3.915 7.704-8.745 0-4.829-3.449-8.745-7.704-8.745h-2.278ZM135.009 250.695c-4.254 0-7.703 3.916-7.703 8.745 0 4.83 3.449 8.745 7.703 8.745h2.278c4.255 0 7.704-3.915 7.704-8.745 0-4.829-3.449-8.745-7.704-8.745h-2.278Z"/><path fill="#D8CCBF" d="M135.009 250.695c-4.254 0-7.703 3.916-7.703 8.745 0 4.83 3.449 8.745 7.703 8.745h2.278c4.255 0 7.704-3.915 7.704-8.745 0-4.829-3.449-8.745-7.704-8.745h-2.278Z"/></svg>

<svg width="520" height="539" viewBox="0 0 520 539" fill="none" xmlns="http://www.w3.org/2000/svg">
<path d="M437.478 438.9H202.348C184.867 438.9 170.696 422.812 170.696 402.967V211.75L319.913 100.1L469.13 211.75V402.967C469.13 422.812 454.959 438.9 437.478 438.9Z" stroke="#D8CCBF" stroke-width="30" stroke-linecap="round" stroke-linejoin="round"/>
<path d="M317.652 438.9H82.5217C65.0407 438.9 50.8696 422.812 50.8696 402.967V211.75L200.087 100.1L349.304 211.75V402.967C349.304 422.812 335.133 438.9 317.652 438.9Z" stroke="#D8CCBF" stroke-width="30" stroke-linecap="round" stroke-linejoin="round"/>
<path d="M200.041 375.233C178.638 375.233 158.685 363.209 146.666 343.074C143.514 337.793 144.73 330.611 149.381 327.033C154.034 323.451 160.36 324.835 163.512 330.114C171.74 343.901 185.396 352.133 200.041 352.133C214.685 352.133 228.341 343.901 236.569 330.114C239.721 324.836 246.048 323.453 250.7 327.033C255.352 330.611 256.567 337.793 253.415 343.074C241.396 363.209 221.443 375.233 200.041 375.233Z" fill="#D8CCBF"/>
<path d="M200.041 375.233C178.638 375.233 158.685 363.209 146.666 343.074C143.514 337.793 144.73 330.611 149.381 327.033C154.034 323.451 160.36 324.835 163.512 330.114C171.74 343.901 185.396 352.133 200.041 352.133C214.685 352.133 228.341 343.901 236.569 330.114C239.721 324.836 246.048 323.453 250.7 327.033C255.352 330.611 256.567 337.793 253.415 343.074C241.396 363.209 221.443 375.233 200.041 375.233Z" fill="#D8CCBF"/>
<path d="M264.137 276.258C272.318 276.258 278.951 268.729 278.951 259.441C278.951 250.153 272.318 242.622 264.137 242.622C255.956 242.622 249.324 250.153 249.324 259.441C249.324 268.729 255.956 276.258 264.137 276.258Z" fill="#D8CCBF"/>
<path d="M150.962 259.441C150.962 268.729 144.329 276.258 136.148 276.258C127.967 276.258 121.335 268.729 121.335 259.441C121.335 250.153 127.967 242.622 136.148 242.622C144.329 242.622 150.962 250.153 150.962 259.441Z" fill="#D8CCBF"/>
<g opacity="0.999996">
<path d="M262.998 250.695C258.744 250.695 255.295 254.611 255.295 259.44C255.295 264.27 258.744 268.185 262.998 268.185H265.276C269.531 268.185 272.98 264.27 272.98 259.44C272.98 254.611 269.531 250.695 265.276 250.695H262.998Z" fill="#D8CCBF"/>
</g>
<g opacity="0.999996">
<path d="M262.998 250.695C258.744 250.695 255.295 254.611 255.295 259.44C255.295 264.27 258.744 268.185 262.998 268.185H265.276C269.531 268.185 272.98 264.27 272.98 259.44C272.98 254.611 269.531 250.695 265.276 250.695H262.998Z" fill="#D8CCBF"/>
</g>
<path d="M135.009 250.695C130.755 250.695 127.306 254.611 127.306 259.44C127.306 264.27 130.755 268.185 135.009 268.185H137.287C141.542 268.185 144.991 264.27 144.991 259.44C144.991 254.611 141.542 250.695 137.287 250.695H135.009Z" fill="#D8CCBF"/>
<path d="M135.009 250.695C130.755 250.695 127.306 254.611 127.306 259.44C127.306 264.27 130.755 268.185 135.009 268.185H137.287C141.542 268.185 144.991 264.27 144.991 259.44C144.991 254.611 141.542 250.695 137.287 250.695H135.009Z" fill="#D8CCBF"/>
</svg>
